imgs/youtube.svg

<svg width="48" height="34" viewBox="0 0 48 34" fill="none" xmlns="http://www.w3.org/2000/svg">
<path d="M47.5207 7.40321C47.5207 7.40321 47.0516 4.09547 45.6125 2.63885C43.7872 0.727037 41.7413 0.717567 40.8031 0.605657C34.0861 0.120117 24.0104 0.120117 24.0104 0.120117H23.9896C23.9896 0.120117 13.9141 0.120117 7.19694 0.605657C6.25864 0.717567 4.21343 0.727037 2.3875 2.63885C0.94835 4.09547 0.48003 7.40321 0.48003 7.40321C0.48003 7.40321 0 11.2875 0 15.1719V18.8134C0 22.6977 0.48004 26.582 0.48004 26.582C0.48004 26.582 0.94836 29.8898 2.38751 31.3464C4.21344 33.2582 6.61191 33.1978 7.68018 33.3981C11.5203 33.7664 24 33.8803 24 33.8803C24 33.8803 34.0861 33.8651 40.8031 33.3796C41.7413 33.2677 43.7872 33.2582 45.6125 31.3464C47.0516 29.8898 47.5207 26.582 47.5207 26.582C47.5207 26.582 48 22.6977 48 18.8134V15.1719C48 11.2875 47.5207 7.40321 47.5207 7.40321Z" fill="#DC2217"/>
<path d="M19.0461 23.2265L19.0439 9.73975L32.0138 16.5066L19.0461 23.2265Z" fill="white"/>
</svg>

<svg width="48" height="34" fill="none" xmlns="http://www.w3.org/2000/svg"><path d="M47.52 7.403s-.468-3.308-1.908-4.764C43.787.727 41.742.718 40.803.606 34.086.12 24.01.12 24.01.12h-.02S13.914.12 7.197.606c-.938.112-2.984.121-4.81 2.033C.949 4.095.48 7.403.48 7.403S0 11.288 0 15.172v3.641c0 3.885.48 7.769.48 7.769s.468 3.308 1.908 4.764c1.825 1.912 4.224 1.852 5.292 2.052 3.84.368 16.32.482 16.32.482s10.086-.015 16.803-.5c.938-.112 2.984-.122 4.81-2.034 1.439-1.456 1.908-4.764 1.908-4.764S48 22.698 48 18.813v-3.641c0-3.885-.48-7.769-.48-7.769z" fill="#DC2217"/><path d="M19.046 23.227L19.044 9.74l12.97 6.767-12.968 6.72z" fill="#fff"/></svg>
